Hatter-kde/actions/24/view-time-schedule-edit.svg

<?xml version="1.0" encoding="UTF-8"?>
<svg viewBox="0 0 24 24" xmlns="http://www.w3.org/2000/svg">
 <defs id="defs3051">
  <style id="current-color-scheme" type="text/css">.ColorScheme-Text {
        color:#363636;
      }</style>
 </defs>
 <path class="ColorScheme-Text" d="m4 4v16h9v-1h-8v-11h14v6h1v-10h-2v3h-2v-3h-8v3h-2v-3h-2zm2 5v3h1v-1h4v1h1v-3h-1v1h-4v-1h-1zm2 4v3h1v-1h4v1h1v-3h-1v1h-4v-1h-1zm10 1-4 4v1 1h2l4-4-2-2zm-0.31055 1.6895 0.5918 0.5918-1.6875 1.6875v0.015625l-1.2812 1.2969-0.59375-0.59375 2.9707-2.998z" fill="currentColor"/>
</svg>

<svg xmlns="http://www.w3.org/2000/svg" viewBox="0 0 24 24">
  <defs id="defs3051">
    <style type="text/css" id="current-color-scheme">
      .ColorScheme-Text {
        color:#363636;
      }
      </style>
  </defs>
 <path style="fill:currentColor;fill-opacity:1;stroke:none" 
     d="M 4 4 L 4 20 L 13 20 L 13 19 L 5 19 L 5 8 L 19 8 L 19 14 L 20 14 L 20 4 L 18 4 L 18 7 L 16 7 L 16 4 L 8 4 L 8 7 L 6 7 L 6 4 L 4 4 z M 6 9 L 6 12 L 7 12 L 7 11 L 11 11 L 11 12 L 12 12 L 12 9 L 11 9 L 11 10 L 7 10 L 7 9 L 6 9 z M 8 13 L 8 16 L 9 16 L 9 15 L 13 15 L 13 16 L 14 16 L 14 13 L 13 13 L 13 14 L 9 14 L 9 13 L 8 13 z M 18 14 L 17 15 L 16 16 L 14 18 L 14 19 L 14 20 L 16 20 L 16.59375 19.40625 L 17 19 L 18 18 L 19 17 L 20 16 L 18 14 z M 17.689453 15.689453 L 18.28125 16.28125 L 18 16.5625 L 16.59375 17.96875 L 16.59375 17.984375 L 15.3125 19.28125 L 14.71875 18.6875 L 17.689453 15.689453 z "
     class="ColorScheme-Text"
     />
</svg>
